austria/municipalities/32141.svg

<?xml version="1.0" encoding="UTF-8"?>
<!DOCTYPE svg PUBLIC "-//W3C//DTD SVG 1.1//EN" "http://www.w3.org/Graphics/SVG/1.1/DTD/svg11.dtd">
<svg xmlns="http://www.w3.org/2000/svg" version="1.1" width="76px" height="75px" style="shape-rendering:geometricPrecision; text-rendering:geometricPrecision; image-rendering:optimizeQuality; fill-rule:evenodd; clip-rule:evenodd" xmlns:xlink="http://www.w3.org/1999/xlink">
<g><path style="opacity:1" fill="#1b47a0" d="M 2.5,-0.5 C 25.5,-0.5 48.5,-0.5 71.5,-0.5C 71.5,9.16667 71.5,18.8333 71.5,28.5C 70.5386,30.2646 70.2053,32.2646 70.5,34.5C 69.5,34.5 68.5,34.5 67.5,34.5C 67.67,35.8221 67.3366,36.9887 66.5,38C 68.9291,43.6415 68.5958,43.8082 65.5,38.5C 66.2941,27.185 66.6275,15.8517 66.5,4.5C 46.8333,4.5 27.1667,4.5 7.5,4.5C 7.5,14.5 7.5,24.5 7.5,34.5C 7.5,35.1667 7.5,35.8333 7.5,36.5C 7.63101,37.2389 7.46434,37.9056 7,38.5C 5.98873,37.6634 4.82207,37.33 3.5,37.5C 2.50465,25.011 2.17132,12.3443 2.5,-0.5 Z"/></g>
<g><path style="opacity:1" fill="#cfced3" d="M 65.5,38.5 C 64.6276,41.9088 62.961,44.9088 60.5,47.5C 62.0095,42.9532 63.0095,38.2866 63.5,33.5C 63.5,33.1667 63.5,32.8333 63.5,32.5C 64.404,31.791 64.7373,30.791 64.5,29.5C 65.4924,21.6841 65.8257,13.6841 65.5,5.5C 46.5,5.5 27.5,5.5 8.5,5.5C 8.82713,15.3478 8.4938,25.0144 7.5,34.5C 7.5,24.5 7.5,14.5 7.5,4.5C 27.1667,4.5 46.8333,4.5 66.5,4.5C 66.6275,15.8517 66.2941,27.185 65.5,38.5 Z"/></g>
<g><path style="opacity:1" fill="#4f5869" d="M 64.5,29.5 C 64.5,21.8333 64.5,14.1667 64.5,6.5C 55.1667,6.5 45.8333,6.5 36.5,6.5C 35.8333,6.5 35.1667,6.5 34.5,6.5C 26.1667,6.5 17.8333,6.5 9.5,6.5C 9.5,14.8333 9.5,23.1667 9.5,31.5C 9.5,32.8333 9.5,34.1667 9.5,35.5C 8.83333,35.5 8.5,35.8333 8.5,36.5C 8.16667,36.5 7.83333,36.5 7.5,36.5C 7.5,35.8333 7.5,35.1667 7.5,34.5C 8.4938,25.0144 8.82713,15.3478 8.5,5.5C 27.5,5.5 46.5,5.5 65.5,5.5C 65.8257,13.6841 65.4924,21.6841 64.5,29.5 Z"/></g>
<g><path style="opacity:1" fill="#07409a" d="M 34.5,6.5 C 34.5,7.5 34.5,8.5 34.5,9.5C 32.8762,9.36007 31.7096,10.0267 31,11.5C 30.7489,13.433 30.2489,15.2663 29.5,17C 30.2453,19.5709 30.5787,22.0709 30.5,24.5C 29.6602,25.735 28.6602,26.735 27.5,27.5C 24.1976,23.1907 20.8643,18.8574 17.5,14.5C 17.2648,13.9033 16.7648,13.5699 16,13.5C 14.6998,14.7073 13.1998,15.3739 11.5,15.5C 10.7279,19.4517 10.3946,23.4517 10.5,27.5C 11.5,27.5 12.5,27.5 13.5,27.5C 13.6946,31.9152 13.1946,36.2486 12,40.5C 11.3405,37.322 10.5072,34.322 9.5,31.5C 9.5,23.1667 9.5,14.8333 9.5,6.5C 17.8333,6.5 26.1667,6.5 34.5,6.5 Z"/></g>
<g><path style="opacity:1" fill="#0f3f93" d="M 36.5,6.5 C 45.8333,6.5 55.1667,6.5 64.5,6.5C 64.5,14.1667 64.5,21.8333 64.5,29.5C 64.7373,30.791 64.404,31.791 63.5,32.5C 63.5,24.1667 63.5,15.8333 63.5,7.5C 58.5,7.5 53.5,7.5 48.5,7.5C 48.4125,10.5983 48.9125,10.9316 50,8.5C 50.5,9.66667 51.3333,10.5 52.5,11C 52.1667,11.3333 51.8333,11.6667 51.5,12C 52.8333,12.3333 54.1667,12.6667 55.5,13C 54.944,13.3826 54.6107,13.8826 54.5,14.5C 53.0937,14.9731 52.427,15.9731 52.5,17.5C 50.9249,21.0781 48.9249,24.4114 46.5,27.5C 48.6879,28.2407 50.6879,28.574 52.5,28.5C 51.0785,31.9221 48.7451,34.2555 45.5,35.5C 45.2953,38.9864 46.6286,39.9864 49.5,38.5C 48.4479,40.256 46.7812,40.9227 44.5,40.5C 44.6621,38.4727 44.4955,36.4727 44,34.5C 43.3292,33.7476 42.4959,33.4142 41.5,33.5C 41.246,26.5599 41.0793,19.5599 41,12.5C 39.906,9.66137 38.406,7.66137 36.5,6.5 Z"/></g>
<g><path style="opacity:1" fill="#1d3a7b" d="M 34.5,6.5 C 35.1667,6.5 35.8333,6.5 36.5,6.5C 38.406,7.66137 39.906,9.66137 41,12.5C 41.0793,19.5599 41.246,26.5599 41.5,33.5C 40.5,35.5 39.5,37.5 38.5,39.5C 38.0552,33.9448 38.0552,27.9448 38.5,21.5C 38.1667,19.1667 37.8333,16.8333 37.5,14.5C 36.5,13.1667 35.5,13.1667 34.5,14.5C 33.7964,17.7041 33.1298,20.8708 32.5,24C 33.1667,25.6667 33.8333,27.3333 34.5,29C 33.797,32.4956 33.1303,35.9956 32.5,39.5C 31.5148,36.9429 30.5148,34.2763 29.5,31.5C 28.8182,32.2427 28.1515,32.9094 27.5,33.5C 27.5,31.5 27.5,29.5 27.5,27.5C 28.6602,26.735 29.6602,25.735 30.5,24.5C 30.5787,22.0709 30.2453,19.5709 29.5,17C 30.2489,15.2663 30.7489,13.433 31,11.5C 31.7096,10.0267 32.8762,9.36007 34.5,9.5C 34.5,8.5 34.5,7.5 34.5,6.5 Z"/></g>
<g><path style="opacity:1" fill="#9c922d" d="M 38.5,39.5 C 36.9192,41.1417 36.2525,43.1417 36.5,45.5C 36.0623,46.5063 35.3957,46.5063 34.5,45.5C 34.9465,42.9899 34.2798,40.9899 32.5,39.5C 33.1303,35.9956 33.797,32.4956 34.5,29C 33.8333,27.3333 33.1667,25.6667 32.5,24C 33.1298,20.8708 33.7964,17.7041 34.5,14.5C 35.5,13.1667 36.5,13.1667 37.5,14.5C 37.8333,16.8333 38.1667,19.1667 38.5,21.5C 38.0552,27.9448 38.0552,33.9448 38.5,39.5 Z"/></g>
<g><path style="opacity:1" fill="#03419d" d="M 63.5,32.5 C 63.5,32.8333 63.5,33.1667 63.5,33.5C 62.7784,33.9175 62.2784,34.5842 62,35.5C 61.6667,35.1667 61.3333,34.8333 61,34.5C 61,32.5 61,30.5 61,28.5C 55.9449,25.4422 54.7782,21.4422 57.5,16.5C 56.6431,15.5748 55.6431,14.9081 54.5,14.5C 54.6107,13.8826 54.944,13.3826 55.5,13C 54.1667,12.6667 52.8333,12.3333 51.5,12C 51.8333,11.6667 52.1667,11.3333 52.5,11C 51.3333,10.5 50.5,9.66667 50,8.5C 48.9125,10.9316 48.4125,10.5983 48.5,7.5C 53.5,7.5 58.5,7.5 63.5,7.5C 63.5,15.8333 63.5,24.1667 63.5,32.5 Z"/></g>
<g><path style="opacity:1" fill="#ececed" d="M 17.5,14.5 C 20.8643,18.8574 24.1976,23.1907 27.5,27.5C 27.5,29.5 27.5,31.5 27.5,33.5C 23.6322,38.2214 19.4656,38.5547 15,34.5C 14.3333,32.5 14.3333,30.5 15,28.5C 16.7799,26.7071 18.6132,25.0404 20.5,23.5C 19.5857,21.3359 18.419,19.3359 17,17.5C 16.2599,16.2506 16.4265,15.2506 17.5,14.5 Z"/></g>
<g><path style="opacity:1" fill="#bfbec2" d="M 49.5,38.5 C 46.6286,39.9864 45.2953,38.9864 45.5,35.5C 48.7451,34.2555 51.0785,31.9221 52.5,28.5C 50.6879,28.574 48.6879,28.2407 46.5,27.5C 48.9249,24.4114 50.9249,21.0781 52.5,17.5C 53.8235,16.1501 54.8235,16.3167 55.5,18C 54.0389,20.2983 52.3722,22.4649 50.5,24.5C 52.5,25.1667 54.5,25.8333 56.5,26.5C 53.0939,29.9928 50.7606,33.9928 49.5,38.5 Z"/></g>
<g><path style="opacity:1" fill="#1a4192" d="M 54.5,14.5 C 55.6431,14.9081 56.6431,15.5748 57.5,16.5C 54.7782,21.4422 55.9449,25.4422 61,28.5C 61,30.5 61,32.5 61,34.5C 61.3333,34.8333 61.6667,35.1667 62,35.5C 62.2784,34.5842 62.7784,33.9175 63.5,33.5C 63.0095,38.2866 62.0095,42.9532 60.5,47.5C 60.1667,47.5 59.8333,47.5 59.5,47.5C 56.8333,46.8333 54.1667,46.1667 51.5,45.5C 54.1667,45.5 56.8333,45.5 59.5,45.5C 59.9111,42.7237 59.0777,42.057 57,43.5C 54.1726,41.7457 54.0059,39.9124 56.5,38C 55.5,37.5 54.5,37 53.5,36.5C 52.3777,37.6302 51.0443,38.2969 49.5,38.5C 50.7606,33.9928 53.0939,29.9928 56.5,26.5C 54.5,25.8333 52.5,25.1667 50.5,24.5C 52.3722,22.4649 54.0389,20.2983 55.5,18C 54.8235,16.3167 53.8235,16.1501 52.5,17.5C 52.427,15.9731 53.0937,14.9731 54.5,14.5 Z"/></g>
<g><path style="opacity:1" fill="#164196" d="M 17.5,14.5 C 16.4265,15.2506 16.2599,16.2506 17,17.5C 18.419,19.3359 19.5857,21.3359 20.5,23.5C 18.6132,25.0404 16.7799,26.7071 15,28.5C 14.3333,30.5 14.3333,32.5 15,34.5C 19.4656,38.5547 23.6322,38.2214 27.5,33.5C 28.1515,32.9094 28.8182,32.2427 29.5,31.5C 30.5148,34.2763 31.5148,36.9429 32.5,39.5C 34.2798,40.9899 34.9465,42.9899 34.5,45.5C 31.1788,45.5358 28.0121,44.8692 25,43.5C 21.2264,44.5692 17.393,45.2358 13.5,45.5C 11.2623,42.5703 9.92899,39.2369 9.5,35.5C 9.5,34.1667 9.5,32.8333 9.5,31.5C 10.5072,34.322 11.3405,37.322 12,40.5C 13.1946,36.2486 13.6946,31.9152 13.5,27.5C 12.5,27.5 11.5,27.5 10.5,27.5C 10.3946,23.4517 10.7279,19.4517 11.5,15.5C 13.1998,15.3739 14.6998,14.7073 16,13.5C 16.7648,13.5699 17.2648,13.9033 17.5,14.5 Z"/></g>
<g><path style="opacity:1" fill="#0b4099" d="M 41.5,33.5 C 42.4959,33.4142 43.3292,33.7476 44,34.5C 44.4955,36.4727 44.6621,38.4727 44.5,40.5C 46.7812,40.9227 48.4479,40.256 49.5,38.5C 51.0443,38.2969 52.3777,37.6302 53.5,36.5C 54.5,37 55.5,37.5 56.5,38C 54.0059,39.9124 54.1726,41.7457 57,43.5C 59.0777,42.057 59.9111,42.7237 59.5,45.5C 56.8333,45.5 54.1667,45.5 51.5,45.5C 46.5092,44.2477 41.5092,44.2477 36.5,45.5C 36.2525,43.1417 36.9192,41.1417 38.5,39.5C 39.5,37.5 40.5,35.5 41.5,33.5 Z"/></g>
<g><path style="opacity:1" fill="#d2d1d4" d="M 34.5,45.5 C 35.3957,46.5063 36.0623,46.5063 36.5,45.5C 41.5092,44.2477 46.5092,44.2477 51.5,45.5C 54.1667,46.1667 56.8333,46.8333 59.5,47.5C 45.6575,48.294 31.6575,48.294 17.5,47.5C 15.6203,47.7709 14.287,47.1042 13.5,45.5C 17.393,45.2358 21.2264,44.5692 25,43.5C 28.0121,44.8692 31.1788,45.5358 34.5,45.5 Z"/></g>
<g><path style="opacity:1" fill="#baab25" d="M 50.5,52.5 C 50.4142,53.4959 50.7476,54.3292 51.5,55C 50.2506,55.7401 49.2506,55.5735 48.5,54.5C 49.0431,54.44 49.3764,54.1067 49.5,53.5C 48.5,53.1667 47.5,52.8333 46.5,52.5C 41.3322,51.9932 36.3322,51.3266 31.5,50.5C 35.722,50.7373 39.8886,50.404 44,49.5C 46.1699,50.7618 48.3365,51.7618 50.5,52.5 Z"/></g>
<g><path style="opacity:1" fill="#faf00c" d="M 27.5,50.5 C 28.8333,50.5 30.1667,50.5 31.5,50.5C 36.3322,51.3266 41.3322,51.9932 46.5,52.5C 47.5,52.8333 48.5,53.1667 49.5,53.5C 49.3764,54.1067 49.0431,54.44 48.5,54.5C 48.1667,54.5 47.8333,54.5 47.5,54.5C 46.9032,53.8614 46.0698,53.528 45,53.5C 41.8194,54.1028 38.6528,54.7694 35.5,55.5C 33.6195,55.0748 32.1195,54.0748 31,52.5C 29.6974,52.9783 28.5307,53.645 27.5,54.5C 27.1667,54.5 26.8333,54.5 26.5,54.5C 27.2341,53.2921 27.5674,51.9587 27.5,50.5 Z"/></g>
<g><path style="opacity:1" fill="#b4a92b" d="M 27.5,50.5 C 27.5674,51.9587 27.2341,53.2921 26.5,54.5C 19.7429,52.3235 20.0762,50.9901 27.5,50.5 Z"/></g>
<g><path style="opacity:1" fill="#a59b2b" d="M 47.5,54.5 C 46.2652,54.7214 45.2652,55.3881 44.5,56.5C 41.301,56.3657 38.1343,56.3657 35,56.5C 33.0125,59.0995 31.1792,59.0995 29.5,56.5C 28.8333,55.8333 28.1667,55.1667 27.5,54.5C 28.5307,53.645 29.6974,52.9783 31,52.5C 32.1195,54.0748 33.6195,55.0748 35.5,55.5C 38.6528,54.7694 41.8194,54.1028 45,53.5C 46.0698,53.528 46.9032,53.8614 47.5,54.5 Z"/></g>
<g><path style="opacity:1" fill="#a4a6b4" d="M 59.5,47.5 C 59.8333,47.5 60.1667,47.5 60.5,47.5C 59.4726,51.2171 57.6393,54.5505 55,57.5C 51.855,60.3038 48.6883,62.9704 45.5,65.5C 43.8828,66.038 42.2161,66.3713 40.5,66.5C 42.6122,63.9374 45.2788,62.104 48.5,61C 50.785,58.7008 52.785,56.2008 54.5,53.5C 57.0862,52.3615 58.7529,50.3615 59.5,47.5 Z"/></g>
<g><path style="opacity:1" fill="#20408b" d="M 59.5,47.5 C 58.7529,50.3615 57.0862,52.3615 54.5,53.5C 53.3984,51.9081 54.065,51.0748 56.5,51C 54.1599,50.2516 52.1599,50.7516 50.5,52.5C 48.3365,51.7618 46.1699,50.7618 44,49.5C 39.8886,50.404 35.722,50.7373 31.5,50.5C 30.1667,50.5 28.8333,50.5 27.5,50.5C 20.0762,50.9901 19.7429,52.3235 26.5,54.5C 26.8333,54.5 27.1667,54.5 27.5,54.5C 28.1667,55.1667 28.8333,55.8333 29.5,56.5C 28.5266,56.9867 27.5266,57.4867 26.5,58C 27.9711,59.5833 28.9711,61.4166 29.5,63.5C 23.0614,60.2293 18.0614,55.396 14.5,49C 15.7375,48.7679 16.7375,48.2679 17.5,47.5C 31.6575,48.294 45.6575,48.294 59.5,47.5 Z"/></g>
<g><path style="opacity:1" fill="#20479f" d="M 71.5,28.5 C 71.0163,46.1531 63.3496,59.4865 48.5,68.5C 47.448,68.6495 46.448,68.4828 45.5,68C 46.5981,67.2303 46.5981,66.397 45.5,65.5C 48.6883,62.9704 51.855,60.3038 55,57.5C 57.6393,54.5505 59.4726,51.2171 60.5,47.5C 62.961,44.9088 64.6276,41.9088 65.5,38.5C 68.5958,43.8082 68.9291,43.6415 66.5,38C 67.3366,36.9887 67.67,35.8221 67.5,34.5C 68.5,34.5 69.5,34.5 70.5,34.5C 70.2053,32.2646 70.5386,30.2646 71.5,28.5 Z"/></g>
<g><path style="opacity:1" fill="#114096" d="M 54.5,53.5 C 52.785,56.2008 50.785,58.7008 48.5,61C 45.2788,62.104 42.6122,63.9374 40.5,66.5C 36.3526,66.8743 32.6859,65.8743 29.5,63.5C 28.9711,61.4166 27.9711,59.5833 26.5,58C 27.5266,57.4867 28.5266,56.9867 29.5,56.5C 31.1792,59.0995 33.0125,59.0995 35,56.5C 38.1343,56.3657 41.301,56.3657 44.5,56.5C 45.2652,55.3881 46.2652,54.7214 47.5,54.5C 47.8333,54.5 48.1667,54.5 48.5,54.5C 49.2506,55.5735 50.2506,55.7401 51.5,55C 50.7476,54.3292 50.4142,53.4959 50.5,52.5C 52.1599,50.7516 54.1599,50.2516 56.5,51C 54.065,51.0748 53.3984,51.9081 54.5,53.5 Z"/></g>
<g><path style="opacity:1" fill="#1e469f" d="M 7.5,36.5 C 7.83333,36.5 8.16667,36.5 8.5,36.5C 10.4043,46.978 15.4043,55.6447 23.5,62.5C 23.631,63.2389 23.4643,63.9056 23,64.5C 21.4787,61.9544 19.9787,61.9544 18.5,64.5C 9.67962,57.6661 4.67962,48.6661 3.5,37.5C 4.82207,37.33 5.98873,37.6634 7,38.5C 7.46434,37.9056 7.63101,37.2389 7.5,36.5 Z"/></g>
<g><path style="opacity:1" fill="#2549a0" d="M 23.5,62.5 C 27.422,65.2929 31.7553,67.2929 36.5,68.5C 38.1705,68.3318 39.5039,67.6651 40.5,66.5C 42.2161,66.3713 43.8828,66.038 45.5,65.5C 46.5981,66.397 46.5981,67.2303 45.5,68C 46.448,68.4828 47.448,68.6495 48.5,68.5C 45.4656,71.0164 42.1323,73.0164 38.5,74.5C 37.5,74.5 36.5,74.5 35.5,74.5C 29.0752,72.4543 23.4086,69.121 18.5,64.5C 19.9787,61.9544 21.4787,61.9544 23,64.5C 23.4643,63.9056 23.631,63.2389 23.5,62.5 Z"/></g>
<g><path style="opacity:1" fill="#a7a8b0" d="M 9.5,35.5 C 9.92899,39.2369 11.2623,42.5703 13.5,45.5C 14.287,47.1042 15.6203,47.7709 17.5,47.5C 16.7375,48.2679 15.7375,48.7679 14.5,49C 18.0614,55.396 23.0614,60.2293 29.5,63.5C 32.6859,65.8743 36.3526,66.8743 40.5,66.5C 39.5039,67.6651 38.1705,68.3318 36.5,68.5C 31.7553,67.2929 27.422,65.2929 23.5,62.5C 15.4043,55.6447 10.4043,46.978 8.5,36.5C 8.5,35.8333 8.83333,35.5 9.5,35.5 Z"/></g>
</svg>

<svg xmlns="http://www.w3.org/2000/svg" width="76" height="75" style="shape-rendering:geometricPrecision;text-rendering:geometricPrecision;image-rendering:optimizeQuality;fill-rule:evenodd;clip-rule:evenodd"><path style="opacity:1" fill="#1b47a0" d="M2.5-.5h69v29c-.961 1.765-1.295 3.765-1 6h-3c.17 1.322-.163 2.489-1 3.5 2.43 5.642 2.096 5.808-1 .5a418.34 418.34 0 0 0 1-34h-59v32a2.427 2.427 0 0 1-.5 2c-1.011-.837-2.178-1.17-3.5-1a361.598 361.598 0 0 1-1-38z"/><path style="opacity:1" fill="#cfced3" d="M65.5 38.5c-.872 3.409-2.539 6.409-5 9a65.485 65.485 0 0 0 3-14v-1c.904-.709 1.237-1.709 1-3 .992-7.816 1.326-15.816 1-24h-57c.327 9.848-.006 19.514-1 29v-30h59a418.34 418.34 0 0 1-1 34z"/><path style="opacity:1" fill="#4f5869" d="M64.5 29.5v-23h-55v29c-.667 0-1 .333-1 1h-1v-2c.994-9.486 1.327-19.152 1-29h57c.326 8.184-.008 16.184-1 24z"/><path style="opacity:1" fill="#07409a" d="M34.5 6.5v3c-1.624-.14-2.79.527-3.5 2a20.435 20.435 0 0 1-1.5 5.5c.745 2.57 1.079 5.07 1 7.5-.84 1.235-1.84 2.235-3 3-3.302-4.31-6.636-8.643-10-13-.235-.597-.735-.93-1.5-1-1.3 1.207-2.8 1.874-4.5 2a54.935 54.935 0 0 0-1 12h3a41.07 41.07 0 0 1-1.5 13 67.643 67.643 0 0 0-2.5-9v-25h25z"/><path style="opacity:1" fill="#0f3f93" d="M36.5 6.5h28v23c.237 1.291-.096 2.291-1 3v-25h-15c-.087 3.098.413 3.432 1.5 1 .5 1.167 1.333 2 2.5 2.5l-1 1 4 1c-.556.383-.89.883-1 1.5-1.406.473-2.073 1.473-2 3a46.417 46.417 0 0 1-6 10c2.188.74 4.188 1.074 6 1-1.422 3.422-3.755 5.755-7 7-.205 3.486 1.129 4.486 4 3-1.052 1.756-2.719 2.423-5 2a18.436 18.436 0 0 0-.5-6c-.67-.752-1.504-1.086-2.5-1-.254-6.94-.42-13.94-.5-21-1.094-2.839-2.594-4.839-4.5-6z"/><path style="opacity:1" fill="#1d3a7b" d="M34.5 6.5h2c1.906 1.161 3.406 3.161 4.5 6 .08 7.06.246 14.06.5 21l-3 6c-.445-5.555-.445-11.555 0-18l-1-7c-1-1.333-2-1.333-3 0-.704 3.204-1.37 6.37-2 9.5l2 5a521.256 521.256 0 0 0-2 10.5 493.9 493.9 0 0 1-3-8 30.943 30.943 0 0 1-2 2v-6c1.16-.765 2.16-1.765 3-3 .079-2.43-.255-4.93-1-7.5a20.435 20.435 0 0 0 1.5-5.5c.71-1.473 1.876-2.14 3.5-2v-3z"/><path style="opacity:1" fill="#9c922d" d="M38.5 39.5c-1.58 1.642-2.248 3.642-2 6-.438 1.006-1.104 1.006-2 0 .447-2.51-.22-4.51-2-6 .63-3.504 1.297-7.004 2-10.5l-2-5c.63-3.13 1.296-6.296 2-9.5 1-1.333 2-1.333 3 0l1 7c-.445 6.445-.445 12.445 0 18z"/><path style="opacity:1" fill="#03419d" d="M63.5 32.5v1c-.722.417-1.222 1.084-1.5 2l-1-1v-6c-5.055-3.058-6.222-7.058-3.5-12a7.467 7.467 0 0 0-3-2c.11-.617.444-1.117 1-1.5l-4-1 1-1c-1.167-.5-2-1.333-2.5-2.5-1.087 2.432-1.587 2.098-1.5-1h15v25z"/><path style="opacity:1" fill="#ececed" d="M17.5 14.5c3.364 4.357 6.698 8.69 10 13v6c-3.868 4.721-8.034 5.055-12.5 1-.667-2-.667-4 0-6a71.22 71.22 0 0 1 5.5-5 26.86 26.86 0 0 0-3.5-6c-.74-1.25-.573-2.25.5-3z"/><path style="opacity:1" fill="#bfbec2" d="M49.5 38.5c-2.871 1.486-4.205.486-4-3 3.245-1.245 5.578-3.578 7-7-1.812.074-3.812-.26-6-1a46.417 46.417 0 0 0 6-10c1.324-1.35 2.324-1.183 3 .5a46.185 46.185 0 0 1-5 6.5l6 2c-3.406 3.493-5.74 7.493-7 12z"/><path style="opacity:1" fill="#1a4192" d="M54.5 14.5a7.467 7.467 0 0 1 3 2c-2.722 4.942-1.555 8.942 3.5 12v6l1 1c.278-.916.778-1.583 1.5-2a65.485 65.485 0 0 1-3 14h-1l-8-2h8c.411-2.776-.422-3.443-2.5-2-2.827-1.754-2.994-3.588-.5-5.5l-3-1.5c-1.122 1.13-2.456 1.797-4 2 1.26-4.507 3.594-8.507 7-12l-6-2a46.185 46.185 0 0 0 5-6.5c-.676-1.683-1.676-1.85-3-.5-.073-1.527.594-2.527 2-3z"/><path style="opacity:1" fill="#164196" d="M17.5 14.5c-1.073.75-1.24 1.75-.5 3a26.86 26.86 0 0 1 3.5 6 71.22 71.22 0 0 0-5.5 5c-.667 2-.667 4 0 6 4.466 4.055 8.632 3.721 12.5-1a30.943 30.943 0 0 0 2-2 493.9 493.9 0 0 0 3 8c1.78 1.49 2.447 3.49 2 6a22.109 22.109 0 0 1-9.5-2 55.977 55.977 0 0 1-11.5 2c-2.238-2.93-3.571-6.263-4-10v-4a67.643 67.643 0 0 1 2.5 9 41.07 41.07 0 0 0 1.5-13h-3a54.935 54.935 0 0 1 1-12c1.7-.126 3.2-.793 4.5-2 .765.07 1.265.403 1.5 1z"/><path style="opacity:1" fill="#0b4099" d="M41.5 33.5c.996-.086 1.83.248 2.5 1 .495 1.973.662 3.973.5 6 2.281.423 3.948-.244 5-2 1.544-.203 2.878-.87 4-2l3 1.5c-2.494 1.912-2.327 3.746.5 5.5 2.078-1.443 2.911-.776 2.5 2h-8c-4.99-1.252-9.99-1.252-15 0-.248-2.358.42-4.358 2-6l3-6z"/><path style="opacity:1" fill="#d2d1d4" d="M34.5 45.5c.896 1.006 1.562 1.006 2 0 5.01-1.252 10.01-1.252 15 0l8 2c-13.843.794-27.843.794-42 0-1.88.27-3.213-.396-4-2a55.977 55.977 0 0 0 11.5-2 22.109 22.109 0 0 0 9.5 2z"/><path style="opacity:1" fill="#baab25" d="M50.5 52.5c-.086.996.248 1.83 1 2.5-1.25.74-2.25.574-3-.5.543-.06.876-.393 1-1l-3-1a211.27 211.27 0 0 1-15-2 45.934 45.934 0 0 0 12.5-1c2.17 1.262 4.337 2.262 6.5 3z"/><path style="opacity:1" fill="#faf00c" d="M27.5 50.5h4a211.27 211.27 0 0 0 15 2l3 1c-.124.607-.457.94-1 1h-1c-.597-.639-1.43-.972-2.5-1a240.24 240.24 0 0 0-9.5 2c-1.88-.425-3.38-1.425-4.5-3a11.81 11.81 0 0 0-3.5 2h-1c.734-1.208 1.067-2.541 1-4z"/><path style="opacity:1" fill="#b4a92b" d="M27.5 50.5c.067 1.459-.266 2.792-1 4-6.757-2.176-6.424-3.51 1-4z"/><path style="opacity:1" fill="#a59b2b" d="M47.5 54.5c-1.235.221-2.235.888-3 2a112.048 112.048 0 0 0-9.5 0c-1.987 2.6-3.82 2.6-5.5 0l-2-2a11.81 11.81 0 0 1 3.5-2c1.12 1.575 2.62 2.575 4.5 3a240.24 240.24 0 0 1 9.5-2c1.07.028 1.903.361 2.5 1z"/><path style="opacity:1" fill="#a4a6b4" d="M59.5 47.5h1c-1.027 3.717-2.86 7.05-5.5 10a216.401 216.401 0 0 1-9.5 8 20.677 20.677 0 0 1-5 1c2.112-2.563 4.779-4.396 8-5.5 2.285-2.3 4.285-4.8 6-7.5 2.586-1.139 4.253-3.139 5-6z"/><path style="opacity:1" fill="#20408b" d="M59.5 47.5c-.747 2.861-2.414 4.861-5 6-1.102-1.592-.435-2.425 2-2.5-2.34-.748-4.34-.248-6 1.5-2.163-.738-4.33-1.738-6.5-3a45.934 45.934 0 0 1-12.5 1h-4c-7.424.49-7.757 1.824-1 4h1l2 2-3 1.5a12.466 12.466 0 0 1 3 5.5c-6.439-3.27-11.439-8.104-15-14.5 1.238-.232 2.238-.732 3-1.5 14.157.794 28.157.794 42 0z"/><path style="opacity:1" fill="#20479f" d="M71.5 28.5c-.484 17.653-8.15 30.986-23 40a4.932 4.932 0 0 1-3-.5c1.098-.77 1.098-1.603 0-2.5a216.401 216.401 0 0 0 9.5-8c2.64-2.95 4.473-6.283 5.5-10 2.461-2.591 4.128-5.591 5-9 3.096 5.308 3.43 5.142 1-.5.837-1.011 1.17-2.178 1-3.5h3c-.295-2.235.039-4.235 1-6z"/><path style="opacity:1" fill="#114096" d="M54.5 53.5a44.313 44.313 0 0 1-6 7.5c-3.221 1.104-5.888 2.937-8 5.5-4.147.374-7.814-.626-11-3a12.466 12.466 0 0 0-3-5.5l3-1.5c1.68 2.6 3.513 2.6 5.5 0 3.134-.134 6.301-.134 9.5 0 .765-1.112 1.765-1.779 3-2h1c.75 1.074 1.75 1.24 3 .5-.752-.67-1.086-1.504-1-2.5 1.66-1.748 3.66-2.248 6-1.5-2.435.075-3.102.908-2 2.5z"/><path style="opacity:1" fill="#1e469f" d="M7.5 36.5h1c1.904 10.478 6.904 19.145 15 26a2.428 2.428 0 0 1-.5 2c-1.521-2.546-3.021-2.546-4.5 0-8.82-6.834-13.82-15.834-15-27 1.322-.17 2.489.163 3.5 1a2.427 2.427 0 0 0 .5-2z"/><path style="opacity:1" fill="#2549a0" d="M23.5 62.5c3.922 2.793 8.255 4.793 13 6 1.67-.168 3.004-.835 4-2a20.677 20.677 0 0 0 5-1c1.098.897 1.098 1.73 0 2.5.948.483 1.948.65 3 .5a38.216 38.216 0 0 1-10 6h-3c-6.425-2.046-12.091-5.379-17-10 1.479-2.546 2.979-2.546 4.5 0a2.428 2.428 0 0 0 .5-2z"/><path style="opacity:1" fill="#a7a8b0" d="M9.5 35.5c.429 3.737 1.762 7.07 4 10 .787 1.604 2.12 2.27 4 2-.762.768-1.762 1.268-3 1.5 3.561 6.396 8.561 11.23 15 14.5 3.186 2.374 6.853 3.374 11 3-.996 1.165-2.33 1.832-4 2-4.745-1.207-9.078-3.207-13-6-8.096-6.855-13.096-15.522-15-26 0-.667.333-1 1-1z"/></svg>
